X: 1690
T: Segâh Peşrev
C: Neyzen Yusuf Paşa
O: Turkey
F: http://compmusic.upf.edu/node/140
N: segah--pesrev--devrikebir----neyzen_yusuf_pasa
N: makam= segah
N: form= pesrev
N: usul= devrikebir = 28/4
M: 28/4
L: 1/16
K: C _1/4B _1/4e ^f 
Q: 1/4=72
%%MIDI tuningsystem comma53
B6^A2 B4 c4  | B2d2 c2B2 ^A2B2 G4  | \
w:  1. HANE  |   | 
d2e2 =f2e2 d4 c2B2  | c3B c2d2 c2d2 c2B2  | 
w:   |   | 
B3^A G2A2 B6c2  | d8 d2c2 c2B2  | d_2/4ef4ed d4 z4  | \
w:   |   |   | 
d4 e2f2 g8  | 
w:   | 
gfga g2f2 f3e d4  | d2g2 f2g2 e2=f2 d2e2  | \
w:   |   | 
d3c B2c2 d8  | 
w:   | 
z2d4e2 d3c B4  | dcde d2c2 B3^A G2A2  | \
w:   |   | 
B12 z4  | B2c2 B2c2 d8  | 
w:   |  TESLİM  | 
_2/4e4 d2e2 f4 e2d2  | d2_2/4e2 f2g2 a2g2 g2f2  | \
w:   |   | 
g6a2 f3_2/4e d4  | g2f2 f2_2/4e2 e2d2 d2c2  | 
w:   |   | 
d2_2/4e2 f2g2 g2f2 f2e2  | d_2/4ef4ed d8  | \
w:   |   | 
d2e2 d2e2 f2a2 g2f2  | 
w:   | 
fefg f2e2 d6c'2  | c'4 _b2a2 a2g2 =f2e2  | \
w:   |   | 
d2e=f e2d2 d3c B4  | 
w:   | 
e3d c2e2 d3c B2d2  | c3B ^A2B2 A2B2 cdcB  | \
w:   |   | 
B6g2 f4 z4  | 
w:   | 
f8 d8  | ede2 fef2 g8  | f2g2 f2g2 a4 g2f2  | \
w:  2. HANE  |   |   | 
b4 a2g2 agf^e f4  | 
w:   | 
z2f^e f2g2 f2g2 f2_1/4e2  | z2ed e2=f2 e2f2 e2d2  | \
w:   |   | 
d6e2 d4 z4  | 
w:   | 
d2e2 d2e2 f2g2 a2f2  | g6a2 g2f2 e2d2  | \
w:   |   | 
f6g2 f2e2 d2c2  | e6g2 =f2e2 e2d2  | 
w:   |   | 
dcde d2c2 B2^A2 B4  | d4 c2B2 e4 d2c2  | \
w:   |   | 
d2cd cB^A2 B6z2  | 
w:   | 
B2c2 B2c2 d8  | _2/4e4 d2e2 f4 e2d2  | \
w:  TESLİM  |   | 
d2_2/4e2 f2g2 a2g2 g2f2  | g6a2 f3_2/4e d4  | 
w:   |   | 
g2f2 f2_2/4e2 e2d2 d2c2  | d2_2/4e2 f2g2 g2f2 f2e2  | \
w:   |   | 
d_2/4ef4ed d8  | 
w:   | 
d2e2 d2e2 f2a2 g2f2  | fefg f2e2 d6c'2  | \
w:   |   | 
c'4 _b2a2 a2g2 =f2e2  | 
w:   | 
d2e=f e2d2 d3c B4  | e3d c2e2 d3c B2d2  | \
w:   |   | 
c3B ^A2B2 A2B2 cdcB  | 
w:   | 
B6c'2 b8  | ^a4 b8 d'2c'2  | b2c'2 b2^a2 b3a g4  | \
w:   |  3. HANE  |   | 
c'4 b2^a2 b4 a2g2  | f2g2 ^a2b2 agf^e f4  | 
w:   |   | 
z2fg f2g2 ^a2b2 c'2d'2  | d'2c'd' c'2b2 ^a2b2 c'd'c'b  | \
w:   |   | 
b6c'2 d'4 z4  | 
w:   | 
c'4 d'4 d'2e'2 d'2c'2  | c'2d'2 c'2b2 b3^a g4  | \
w:   |   | 
c'3b ^a2b2 a2b2 a2g2  | 
w:   | 
f2c'2 b2^a2 agf^e f4  | f4 e2d2 a2g2 =f2e2  | \
w:   |   | 
d4 c2B2 e4 d2c2  | 
w:   | 
d2cd cB^A2 B8  | B2c2 B2c2 d8  | _2/4e4 d2e2 f4 e2d2  | \
w:   |  TESLİM  |   | 
d2_2/4e2 f2g2 a2g2 g2f2  | 
w:   | 
g6a2 f3_2/4e d4  | g2f2 f2_2/4e2 e2d2 d2c2  | \
w:   |   | 
d2_2/4e2 f2g2 g2f2 f2e2  | 
w:   | 
d_2/4ef4ed d8  | d2e2 d2e2 f2a2 g2f2  | \
w:   |   | 
fefg f2e2 d6c'2  | 
w:   | 
c'4 _b2a2 a2g2 =f2e2  | d2e=f e2d2 d3c B4  | \
w:   |   | 
e3d c2e2 d3c B2d2  | 
w:   | 
c3B ^A2B2 A2B2 cdcB  | B6c2 d8  | B6d2 c6e2  | \
w:   |   |  4. HANE  | 
dcde d2c2 B2^A2 B4  | 
w:   | 
d4 e2f2 a2g2 =f2e2  | d3c B2c2 d4 z4  | \
w:   |   | 
d6e2 f6a2  | g8 g2f2 f2_2/4e2  | 
w:   |   | 
d_2/4ef4ed d8  | g4 f2a2 g2=f2 e4  | \
w:   |   | 
=f4 e2g2 f2e2 d4  | a2g2 g2=f2 f2e2 e2d2  | 
w:   |   | 
dcde d2c2 B2^A2 B4  | e2d2 c2B2 ^A6G2  | \
w:   |   | 
B2c2 d2e2 d3c B2d2  | 
w:   | 
c3B ^A2c2 B8  | B2c2 B2c2 d8  | _2/4e4 d2e2 f4 e2d2  | \
w:   |  TESLİM  |   | 
d2_2/4e2 f2g2 a2g2 g2f2  | 
w:   | 
g6a2 f3_2/4e d4  | g2f2 f2_2/4e2 e2d2 d2c2  | \
w:   |   | 
d2_2/4e2 f2g2 g2f2 f2e2  | 
w:   | 
d_2/4ef4ed d8  | d2e2 d2e2 f2a2 g2f2  | \
w:   |   | 
fefg f2e2 d6c'2  | 
w:   | 
c'4 _b2a2 a2g2 =f2e2  | d2e=f e2d2 d3c B4  | \
w:   |   | 
e3d c2e2 d3c B2d2  | 
w:   | 
c3B ^A2B2 A2B2 cdcB  | B12 z4  | |


